!!!COM: Palestrina, Giovanni Perluigi da
!!!OPR: Missa Te Deum laudamus
!!!OTL: Kyrie II
**kern	**kern	**kern	**kern	**kern	**kern
*Ibass	*Itenor	*Itenor	*Icalto	*Icalto	*Icant
!Bassus	!Tenor 2	!Tenor 1	!Altus 2	!Altus 1	!Cantus
*clefF4	*clefGv2	*clefGv2	*clefG2	*clefG2	*clefG2
*k[]	*k[]	*k[]	*k[]	*k[]	*k[]
*A:aeo	*A:aeo	*A:aeo	*A:aeo	*A:aeo	*A:aeo
*M4/2	*M4/2	*M4/2	*M4/2	*M4/2	*M4/2
=1	=1	=1	=1	=1	=1
1.F	0r	1r	0r	0r	0r
.	.	[1c	.	.	.
2F	.	.	.	.	.
=2	=2	=2	=2	=2	=2
1E	0r	2c]	0r	0r	0r
.	.	2c	.	.	.
2D	.	1B	.	.	.
2E	.	.	.	.	.
=3	=3	=3	=3	=3	=3
4F	0r	2A	1.f	0r	0r
4E	.	.	.	.	.
4D	.	2.B	.	.	.
4C	.	.	.	.	.
1D	.	.	.	.	.
.	.	4A	.	.	.
.	.	[2A	2f	.	.
=4	=4	=4	=4	=4	=4
2C	0r	4A]	2e	0r	1r
.	.	4G	.	.	.
2BB	.	2G	2d	.	.
2.AA	.	1A	2f	.	[1cc
.	.	.	4e	.	.
4BB	.	.	4d	.	.
=5	=5	=5	=5	=5	=5
1C	0r	2.E	1e	1.g	2cc]
.	.	.	.	.	2cc
.	.	4F	.	.	.
2GG	.	1G	1d	.	1b
2G	.	.	.	2g	.
=6	=6	=6	=6	=6	=6
2A	0r	0r	2c	2f	2a
2G	.	.	2B	2e	2.b
2F	.	.	2c	1f	.
.	.	.	.	.	4a
2D	.	.	2d	.	[2a
=7	=7	=7	=7	=7	=7
1E	1r	2r	1B	1e	2a]
.	.	2E	.	.	2g#
1r	[1c	2.F	1A	2r	[1a
.	.	.	.	[2A	.
.	.	4G	.	.	.
=8	=8	=8	=8	=8	=8
2r	2c]	1A	0r	4A]	1a]
.	.	.	.	4B	.
1A	2c	.	.	4c	.
.	.	.	.	4d	.
.	1B	1E	.	1e	1r
2G	.	.	.	.	.
=9	=9	=9	=9	=9	=9
2F	2A	2A	0r	2d	0r
2E	2.B	2G	.	2e	.
2D	.	1A	.	2f	.
.	4A	.	.	.	.
2F	[2A	.	.	2d	.
=10	=10	=10	=10	=10	=10
1E	2A]	1B	2r	0e	1r
.	2G#	.	2.e	.	.
1AA	2A	2.c	.	.	2r
.	.	.	4d	.	.
.	[2A	.	4c	.	[2cc
.	.	4d	4B	.	.
=11	=11	=11	=11	=11	=11
0r	2A]	1e	2A	0r	2cc]
.	2G	.	2B	.	2b
.	2F	2r	2c	.	2a
.	2E	[2c	2e	.	2g
=12	=12	=12	=12	=12	=12
0r	2F	2c]	1d	0r	2a
.	2G	2B	.	.	2b
.	1C	2c	2.e	.	1g
.	.	2G	.	.	.
.	.	.	4d	.	.
=13	=13	=13	=13	=13	=13
0r	2r	4A	4c	0r	2e
.	.	4G	4B	.	.
.	2c	4F	1A	.	1f
.	.	4E	.	.	.
.	2d	2D	.	.	.
.	[2c	2E	2G	.	[2e
=14	=14	=14	=14	=14	=14
0r	2c]	1F	1A	2r	2e]
.	4B	.	.	1a	2d
.	4A	.	.	.	.
.	1B	1E	1r	.	1e
.	.	.	.	2g	.
=15	=15	=15	=15	=15	=15
2r	1A	0r	0r	2f	1.cc
1A	.	.	.	2e	.
.	1r	.	.	2f	.
2G	.	.	.	2g	2b
=16	=16	=16	=16	=16	=16
2F	0r	2r	0r	2c	2a
2E	.	1c	.	2e	2g
2F	.	.	.	1d	2a
2G	.	2B	.	.	2b
=17	=17	=17	=17	=17	=17
2.C	0r	2A	2r	1c	[0e
.	.	2G	1c	.	.
4BB	.	.	.	.	.
2AA	.	2A	.	1r	.
2GG#	.	2B	2B	.	.
=18	=18	=18	=18	=18	=18
1AA	2r	1E	1A	2r	1e]
.	1c	.	.	1e	.
1r	.	1r	2G	.	1g
.	2B	.	2g	2d	.
=19	=19	=19	=19	=19	=19
0r	2A	0r	2f	2c	2a
.	2G	.	2e	2B	2.b
.	2F	.	1f	2c	.
.	.	.	.	.	4a
.	2D	.	.	2d	[2a
=20	=20	=20	=20	=20	=20
1r	1E	2r	1e	1B	2a]
.	.	1e	.	.	2g#
2r	1A	.	2r	1A	1a
[2F	.	2d	[2a	.	.
=21	=21	=21	=21	=21	=21
2F]	1r	2.c	2a]	0r	0r
2E	.	.	2g	.	.
.	.	8B	.	.	.
.	.	8c	.	.	.
2D	2r	4d	2f	.	.
.	.	4A	.	.	.
2C	[2A	2c	2e	.	.
=22	=22	=22	=22	=22	=22
2D	2A]	1B	2f	1r	1r
2E	2G	.	2g	.	.
1AA	2F	1A	2c	2r	2r
.	2E	.	2e	[2a	[2cc
=23	=23	=23	=23	=23	=23
0r	2F	2r	1d	2a]	2cc]
.	2G	2d	.	2g	2b
.	2A	2c	1r	2f	2a
.	2E	2B	.	2e	2g#
=24	=24	=24	=24	=24	=24
0r	2.A	1c	0r	2f	0a
.	.	.	.	1e	.
.	4G	.	.	.	.
.	1F	2.A	.	.	.
.	.	.	.	2d	.
.	.	4B	.	.	.
=25	=25	=25	=25	=25	=25
2.C	[0E	1c	2r	1e	1g
.	.	.	1c	.	.
4BB	.	.	.	.	.
2AA	.	1r	.	2.e	2a
2GG#	.	.	2B	.	2b
.	.	.	.	4d	.
=26	=26	=26	=26	=26	=26
1AA	0E]	1.e	1A	2c	1cc
.	.	.	.	2A	.
1E	.	.	1G#	1B	1b
.	.	2d	.	.	.
=27	=27	=27	=27	=27	=27
0AA	[0E	2c	0A	1e	2.a
.	.	2B	.	.	.
.	.	.	.	.	4b
.	.	1A	.	1e	1cc
=28	=28	=28	=28	=28	=28
0E	0E]	0G#	0B	0e	0b
==	==	==	==	==	==
*-	*-	*-	*-	*-	*-
!!!CDT: 1525/^1526/-1594/2/2
!!!OCY: Italia
!!!AGN: Mass (Paraphrase)
!!!AST: renaissance, vocal
!!!ASW: Hymn
!!!PWK: Masses, Book 9
!!!RNB: Cadence finals: G,E,D
!!!YOR: Le Opere Complete, v. 25, p. 172
!!!YOO: Rome, Italy: Fratelli Scalera
!!!END: 1992//
!!!EED: John Miller
!!!YEC: Copyright 2000, John Miller
!!!YEN: United States of America
!!!YEM: Rights to all derivative electronic formats reserved.
!!!YEM: Refer to licensing agreement for further details.
!!!YEM: This file must be accompanied by the licensing agreement.
!!!YEM: A copy of the licensing agreement may be found at http://www.music-cog.ohio-state.edu/HumdrumDatabases/Palestrina/license.txt
!!!EMD: converted to Humdrum by Bret Aarden
